packages/components/src/components/icon/common/ic-name-and-address-verification.svg

<svg width="14" height="13" viewBox="0 0 14 13" fill="none" xmlns="http://www.w3.org/2000/svg">
<path fill-rule="evenodd" clip-rule="evenodd" d="M6.0311 1.16498C6.59037 0.691751 7.40966 0.691752 7.96892 1.16498L13.823 6.11841C14.0338 6.29678 14.0601 6.61227 13.8817 6.82308C13.7033 7.03388 13.3878 7.06017 13.177 6.8818L12 5.88585V11.5001C12 12.3285 11.3284 13.0001 10.5 13.0001H3.50001C2.67158 13.0001 2.00001 12.3285 2.00001 11.5001V5.88585L0.822982 6.8818C0.612178 7.06017 0.296689 7.03388 0.118317 6.82308C-0.0600546 6.61227 -0.0337638 6.29678 0.177039 6.11841L6.0311 1.16498ZM3.00001 5.0397V11.5001C3.00001 11.7762 3.22387 12.0001 3.50001 12.0001H5.00001V9.50011C5.00001 8.67168 5.67158 8.00011 6.50001 8.00011H7.50001C8.32844 8.00011 9.00001 8.67168 9.00001 9.50011V12.0001H10.5C10.7762 12.0001 11 11.7762 11 11.5001V5.0397L7.32298 1.92837C7.13656 1.77062 6.86346 1.77062 6.67704 1.92837L3.00001 5.0397ZM8.00001 12.0001V9.50011C8.00001 9.22396 7.77615 9.00011 7.50001 9.00011H6.50001C6.22387 9.00011 6.00001 9.22396 6.00001 9.50011V12.0001H8.00001Z" fill="var(--fill-color1)"/>
</svg>

<svg xmlns="http://www.w3.org/2000/svg" width="14" height="13" fill="none"><path fill="var(--fill-color1)" fill-rule="evenodd" d="M6.031 1.165a1.5 1.5 0 0 1 1.938 0l5.854 4.953a.5.5 0 1 1-.646.764L12 5.886V11.5a1.5 1.5 0 0 1-1.5 1.5h-7A1.5 1.5 0 0 1 2 11.5V5.886l-1.177.996a.5.5 0 0 1-.646-.764l5.854-4.953ZM3 5.04v6.46a.5.5 0 0 0 .5.5H5V9.5A1.5 1.5 0 0 1 6.5 8h1A1.5 1.5 0 0 1 9 9.5V12h1.5a.5.5 0 0 0 .5-.5V5.04L7.323 1.928a.5.5 0 0 0-.646 0L3 5.04ZM8 12V9.5a.5.5 0 0 0-.5-.5h-1a.5.5 0 0 0-.5.5V12h2Z" clip-rule="evenodd"/></svg>
